ion/gift.svg

<svg viewBox="0 0 512 512" xmlns="http://www.w3.org/2000/svg"><g fill="none"><path d="M200 144h40v-40 0c0-22.1-17.91-40-40-40 -22.1 0-40 17.9-40 40 0 22.09 17.9 40 40 40Z"/><path d="M352 104v0c0-22.1-17.91-40-40-40 -22.1 0-40 17.9-40 40v40h40v0c22.09 0 40-17.91 40-40Z"/></g><g><path d="M80 416v0c0 35.34 28.65 64 64 64h92v0c2.2 0 4-1.8 4-4V292v0c0-2.21-1.8-4-4-4H88v0c-4.42 0-8 3.58-8 8Z"/><path d="M240 252V144h32v108 0c0 2.2 1.79 4 4 4h140v0c5.45-.01 10.86-.94 16-2.75v0 0c19.15-6.81 31.97-24.92 32-45.25v-16 0c0-26.51-21.5-48-48-48h-40.54v0c-1.11-.02-1.99-.93-1.97-2.04 0-.35.09-.68.26-.97v0c20.26-34.22 8.95-78.38-25.26-98.65 -30.66-18.16-70-11.17-92.51 16.46v-.001c-25.13-30.83-70.48-35.45-101.3-10.33 -27.63 22.51-34.63 61.84-16.47 92.5v0c.55.95.22 2.17-.74 2.73 -.3.17-.63.26-.97.26H95.96v0c-26.51 0-48 21.49-48 48v16 0c.02 20.33 12.84 38.44 32 45.25v0h0c5.13 1.81 10.54 2.74 16 2.75h140v0c2.2 0 4-1.8 4-4Zm32-148v0c0-22.1 17.9-40 40-40 22.09 0 40 17.9 40 40 0 22.09-17.91 40-40 40h-40Zm-74.86-39.9v0c22.03-1.58 41.17 15 42.75 37.03 .06.95.1 1.9.1 2.86v40h-40v0c-22.1-.06-39.96-18.02-39.9-40.11 .05-20.91 16.19-38.24 37.03-39.79Z"/><path d="M276 480h92v0c35.34 0 64-28.66 64-64V296v0c0-4.42-3.59-8-8-8H276v0c-2.21 0-4 1.79-4 4v184 0c0 2.2 1.79 4 4 4Z"/></g></svg>

<svg xmlns="http://www.w3.org/2000/svg" width="512" height="512" viewBox="0 0 512 512"><path d="M200,144h40V104a40,40,0,1,0-40,40Z" style="fill:none"/><path d="M352,104a40,40,0,0,0-80,0v40h40A40,40,0,0,0,352,104Z" style="fill:none"/><path d="M80,416a64,64,0,0,0,64,64h92a4,4,0,0,0,4-4V292a4,4,0,0,0-4-4H88a8,8,0,0,0-8,8Z"/><path d="M240,252V144h32V252a4,4,0,0,0,4,4H416a47.93,47.93,0,0,0,16-2.75h0A48.09,48.09,0,0,0,464,208V192a48,48,0,0,0-48-48H375.46a2,2,0,0,1-1.7-3A72,72,0,0,0,256,58.82,72,72,0,0,0,138.24,141a2,2,0,0,1-1.7,3H96a48,48,0,0,0-48,48v16a48.09,48.09,0,0,0,32,45.25h0A47.93,47.93,0,0,0,96,256H236A4,4,0,0,0,240,252Zm32-148a40,40,0,1,1,40,40H272ZM197.14,64.1A40,40,0,0,1,240,104v40H200a40,40,0,0,1-2.86-79.89Z"/><path d="M276,480h92a64,64,0,0,0,64-64V296a8,8,0,0,0-8-8H276a4,4,0,0,0-4,4V476A4,4,0,0,0,276,480Z"/></svg>
